X:1
T:我的中国心
T:我的中国心
L:1/8
M:4/4
K:Eb
V:1 treble nm="Piano" snm="Pno."
V:1
 G4 c4 | e2 dc G2 E2 | c8- | c8 | G4 g4 | f2 gf e2 d2 | G8- | G8 | c3 G FGED | C6 z2 | %10
 G c2 B GFEF | G6 GB | c3 d cBGF | E (E2 F) G4 | F3 G (DC) B,2 | C6 z2 | C3 G FGED | C8 | %18
 G c2 B GFEF | G6 GB | c3 d cB(GF) | E E2 F G4 | F3 G DC B,2 | C6 z G | B3 G G2 z G | e3 c c2 ce | %26
 c2 B2 E2 FE/F/ | G6 z G | e3 c c3 c | e3 f g4- | g2 gf d3 B | c6 z2 | z8 | c3 e f2 ed | c6 z2 | %35
 c e2 c cBGF | G6 GB | c2 B2 G2 GF | E E2 F G4 | F3 G (DC) B,2 | C6 z/ G,/C/D/ | e3 d d3 c | %42
 c3 G G4 | c3 A A2 G2 | F6 z2 | d3 c c3 B | B3 F F4 | z GEF G2 D2 | C6 z G | B3 G G2 z G | %50
 e3 c c2 ce | c2 B2 E2 FE/F/ | G6 z G | e3 c c3 c | e3 f g4 | g2 gf d3 B | c6 z2 |: C3 G (FG)ED | %58
 C6 z2 | G c2 B GFEF | G6 GB |1 c3 d cBGF | E (E2 F) G4 | F3 G (DC) B,2 | C6 z2 :|2 c3 d cBGF | %66
 [Be] ([Be]2 [cf]) [eg]4 | [cf]3 [Bg] ([Fd][Gc]) B2 | [Gc]8- | [Gc]6 z2 |] %70

